packages/icons/src/components/Logo/assets/light/toucan-toco.svg

<svg width="16" height="16" viewBox="0 0 16 16" fill="none" xmlns="http://www.w3.org/2000/svg">
<path d="M8.66583 1.02971C8.54698 1.01621 8.34979 1.00541 8.22554 1.00271L8.00895 1C8.00667 3.32587 7.9878 5.65282 8.00895 7.97861H14.9864C14.9826 7.67733 14.978 7.48654 14.973 7.42767C14.7839 5.25361 13.6602 3.36311 11.8397 2.1478C11.4939 1.91824 10.8024 1.56715 10.3946 1.41861C9.90836 1.24037 9.20065 1.08102 8.66583 1.02971Z" fill="#A0D1C5"/>
<path fill-rule="evenodd" clip-rule="evenodd" d="M8.01197 4.97016L8.01496 6.51032C8.02306 8.34439 8.02036 8.50646 7.95283 8.97916C7.74215 10.454 7.09657 11.7775 6.06473 12.8418C4.8006 14.1464 3.18263 14.8811 1.35666 14.9811L1.01361 15V11.3697C1.01361 9.16824 1.02441 7.61779 1.04062 7.42871C1.2297 5.25429 2.35338 3.36348 4.17394 2.14797C4.51969 1.91838 5.21118 1.56723 5.61905 1.41866C6.10525 1.24039 6.81296 1.08104 7.34779 1.02972C7.46664 1.01621 7.66383 1.00539 7.78808 1.00269L8.00955 1L8.01197 4.97016ZM6.13884 3.9456C5.89387 3.9456 5.69527 4.14419 5.69527 4.38917C5.69527 4.63415 5.89387 4.83274 6.13884 4.83274C6.38382 4.83274 6.58242 4.63415 6.58242 4.38917C6.58242 4.14419 6.38382 3.9456 6.13884 3.9456Z" fill="#404040"/>
<path d="M5.4842 2.53423C5.89477 2.39377 6.24323 2.38027 6.65651 2.48831C7.17512 2.62607 7.64511 3.00693 7.88551 3.48233L8.00977 3.73354C8.15462 4.11533 8.11302 4.63383 8.00706 5.01117L7.95305 5.14624C7.81799 5.47577 7.46143 5.88095 7.14 6.07273C6.84288 6.2483 6.38099 6.36714 6.06766 6.34284L5.9164 6.33203L5.92449 6.44278C5.93259 6.52111 5.91908 6.57244 5.88397 6.61565C5.83265 6.68047 5.83266 6.68049 5.92989 6.91277C6.31615 7.80954 6.22432 8.68743 5.65978 9.52208C4.81973 10.7619 3.01537 11.7208 1.29205 11.8478C1.05165 11.8667 1.04083 11.864 1.04083 11.8126C1.04083 11.764 1.06514 11.7559 1.32445 11.7397C2.29146 11.6776 3.3368 11.3075 4.22817 10.7106C5.17087 10.0812 5.77053 9.29787 5.9434 8.47673C5.96501 8.37408 5.98392 8.1472 5.98392 7.97163C5.98392 7.60428 5.91368 7.27742 5.76782 6.94788C5.69489 6.78582 5.66788 6.75341 5.61386 6.75341C5.33295 6.75341 5.18709 6.45359 5.38696 6.28612L5.46531 6.22128L5.29784 6.14836C5.08175 6.05652 4.78191 5.81341 4.60634 5.59461C4.18226 5.06519 4.06882 4.371 4.29571 3.72003C4.47939 3.18791 4.94938 2.72061 5.4842 2.53423ZM5.70352 6.3955C5.6333 6.32258 5.57117 6.31178 5.49554 6.35769C5.40641 6.40902 5.45773 6.58458 5.58197 6.65211C5.62249 6.67372 5.62789 6.67103 5.61709 6.62511C5.60358 6.57379 5.6279 6.56029 5.73864 6.56299C5.79536 6.56569 5.77375 6.46303 5.70352 6.3955ZM7.65374 3.62685C7.34852 3.00018 6.62192 2.61123 5.93313 2.70846C5.26325 2.8003 4.7068 3.2784 4.51773 3.92127C4.29083 4.69379 4.67169 5.54735 5.4037 5.9066C6.05737 6.22804 6.8164 6.09568 7.33772 5.57167C7.67266 5.23943 7.82931 4.86667 7.83202 4.39667C7.83472 4.08874 7.7942 3.91587 7.65374 3.62685Z" fill="#F2C600"/>
</svg>

<svg xmlns="http://www.w3.org/2000/svg" width="16" height="16" fill="none" viewBox="0 0 16 16">
    <path fill="#a0d1c5" d="M8.666 1.03a6 6 0 0 0-.44-.027L8.009 1c-.002 2.326-.021 4.653 0 6.979h6.977a13 13 0 0 0-.013-.551c-.19-2.174-1.313-4.065-3.133-5.28a8.7 8.7 0 0 0-1.445-.73 7.8 7.8 0 0 0-1.73-.388"/>
    <path fill="#404040" fill-rule="evenodd" d="m8.012 4.97.003 1.54c.008 1.834.005 1.996-.062 2.47a6.9 6.9 0 0 1-1.888 3.862c-1.264 1.304-2.882 2.04-4.708 2.14L1.014 15v-3.63c0-2.202.01-3.752.027-3.941.189-2.175 1.312-4.066 3.133-5.281a8.7 8.7 0 0 1 1.445-.73 7.8 7.8 0 0 1 1.729-.388c.119-.014.316-.025.44-.027L8.01 1zM6.139 3.946a.444.444 0 1 0 0 .887.444.444 0 0 0 0-.887" clip-rule="evenodd"/>
    <path fill="#f2c600" d="M5.484 2.534a1.9 1.9 0 0 1 1.173-.046c.518.138.988.519 1.229.994l.124.252c.145.381.103.9-.003 1.277l-.054.135c-.135.33-.492.735-.813.927-.297.175-.759.294-1.072.27l-.152-.011.008.11c.009.08-.005.13-.04.174-.051.064-.051.064.046.297.386.897.294 1.774-.27 2.61-.84 1.239-2.645 2.198-4.368 2.325-.24.019-.251.016-.251-.035 0-.049.024-.057.283-.073.967-.062 2.013-.433 2.904-1.03.943-.629 1.543-1.412 1.715-2.233.022-.103.04-.33.04-.505 0-.368-.07-.695-.215-1.024-.073-.162-.1-.195-.154-.195-.281 0-.427-.3-.227-.467l.078-.065-.167-.073c-.216-.091-.516-.335-.692-.553a1.94 1.94 0 0 1-.31-1.875 2 2 0 0 1 1.188-1.186m.22 3.862c-.07-.073-.133-.084-.208-.038-.09.051-.038.227.086.294.04.022.046.019.035-.027-.013-.051.01-.065.122-.062.056.003.035-.1-.035-.167m1.95-2.77a1.7 1.7 0 0 0-1.72-.918 1.72 1.72 0 0 0-1.416 1.213 1.705 1.705 0 0 0 .886 1.986 1.66 1.66 0 0 0 1.934-.335c.335-.333.491-.705.494-1.175a1.5 1.5 0 0 0-.178-.77"/>
</svg>
